icon-svg/bulb-group-lightstrip.svg

<svg xmlns="http://www.w3.org/2000/svg" fill="#44739e" viewBox="0 0 24 24"><path d="M17.479 14.329H3.507a.727.727 0 0 0-.822.822v3.013a.875.875 0 0 0 .822.822h13.972c3.014 0 3.836 2.192 3.836 3.014v-3.836a3.918 3.918 0 0 0-3.836-3.835M5.151 17.616a.822.822 0 1 1 0-1.643.726.726 0 0 1 .822.821.875.875 0 0 1-.822.822m3.835 0a1.235 1.235 0 0 1-.822-.822.875.875 0 0 1 .822-.821.726.726 0 0 1 .822.821.727.727 0 0 1-.822.822m3.836 0a.822.822 0 1 1 0-1.643.726.726 0 0 1 .822.821.875.875 0 0 1-.822.822m3.836 0a1.235 1.235 0 0 1-.822-.822.875.875 0 0 1 .822-.821.726.726 0 0 1 .821.821.726.726 0 0 1-.821.822M17.479 2H3.507a.875.875 0 0 0-.822.822v3.014a.875.875 0 0 0 .822.822h13.972c3.014 0 3.836 2.191 3.836 3.013V6.11A3.981 3.981 0 0 0 17.479 2M5.151 5.014a.875.875 0 0 1-.822-.822.727.727 0 0 1 .822-.822c.548 0 .822.548.822 1.1s-.548.544-.822.544m3.835 0a.875.875 0 0 1-.822-.822.727.727 0 0 1 .822-.822.875.875 0 0 1 .822.822.875.875 0 0 1-.822.822m3.836 0A.727.727 0 0 1 12 4.192a.727.727 0 0 1 .822-.822c.548 0 .822.548.822 1.1s-.544.544-.822.544m3.836 0a.727.727 0 0 1-.822-.822.727.727 0 0 1 .822-.822.874.874 0 0 1 .821.822.874.874 0 0 1-.821.822m.821 3.286H3.507a.875.875 0 0 0-.822.822v3.014a.727.727 0 0 0 .822.822h13.972c3.014 0 3.836 2.192 3.836 3.014v-3.835A3.746 3.746 0 0 0 17.479 8.3M5.151 11.315a.875.875 0 0 1-.822-.822.727.727 0 0 1 .822-.822.727.727 0 0 1 .822.822.875.875 0 0 1-.822.822m3.835 0a.875.875 0 0 1-.822-.822.727.727 0 0 1 .822-.822.727.727 0 0 1 .822.822.727.727 0 0 1-.822.822m3.836 0a.727.727 0 0 1-.822-.822.727.727 0 0 1 .822-.822.727.727 0 0 1 .822.822.875.875 0 0 1-.822.822m3.836 0a.727.727 0 0 1-.822-.822.727.727 0 0 1 .822-.822.726.726 0 0 1 .821.822.726.726 0 0 1-.821.822"/></svg>

<?xml version="1.0" encoding="UTF-8"?>
<svg width="24px" height="24px" viewBox="0 0 24 24" version="1.1" fill="#44739e" xmlns="http://www.w3.org/2000/svg" xmlns:xlink="http://www.w3.org/1999/xlink">
            <path d="M 17.479,14.329 H 3.507 a 0.727,0.727 0 0 0 -0.822,0.822 v 3.013 a 0.875,0.875 0 0 0 0.822,0.822 h 13.972 c 3.014,0 3.836,2.192 3.836,3.014 V 18.164 A 3.918,3.918 0 0 0 17.479,14.329 Z M 5.151,17.616 a 0.822,0.822 0 1 1 0,-1.643 0.726,0.726 0 0 1 0.822,0.821 0.875,0.875 0 0 1 -0.822,0.822 z m 3.835,0 a 1.235,1.235 0 0 1 -0.822,-0.822 0.875,0.875 0 0 1 0.822,-0.821 0.726,0.726 0 0 1 0.822,0.821 0.727,0.727 0 0 1 -0.822,0.822 z m 3.836,0 a 0.822,0.822 0 1 1 0,-1.643 0.726,0.726 0 0 1 0.822,0.821 0.875,0.875 0 0 1 -0.822,0.822 z m 3.836,0 a 1.235,1.235 0 0 1 -0.822,-0.822 0.875,0.875 0 0 1 0.822,-0.821 0.726,0.726 0 0 1 0.821,0.821 0.726,0.726 0 0 1 -0.821,0.822 z M 17.479,2 H 3.507 A 0.875,0.875 0 0 0 2.685,2.822 v 3.014 a 0.875,0.875 0 0 0 0.822,0.822 h 13.972 c 3.014,0 3.836,2.191 3.836,3.013 V 6.11 A 3.981,3.981 0 0 0 17.479,2 Z M 5.151,5.014 A 0.875,0.875 0 0 1 4.329,4.192 0.727,0.727 0 0 1 5.151,3.37 c 0.548,0 0.822,0.548 0.822,1.1 0,0.552 -0.548,0.544 -0.822,0.544 z m 3.835,0 A 0.875,0.875 0 0 1 8.164,4.192 0.727,0.727 0 0 1 8.986,3.37 0.875,0.875 0 0 1 9.808,4.192 0.875,0.875 0 0 1 8.986,5.014 Z m 3.836,0 A 0.727,0.727 0 0 1 12,4.192 0.727,0.727 0 0 1 12.822,3.37 c 0.548,0 0.822,0.548 0.822,1.1 0,0.552 -0.544,0.544 -0.822,0.544 z m 3.836,0 A 0.727,0.727 0 0 1 15.836,4.192 0.727,0.727 0 0 1 16.658,3.37 0.874,0.874 0 0 1 17.479,4.192 0.874,0.874 0 0 1 16.658,5.014 Z M 17.479,8.3 H 3.507 A 0.875,0.875 0 0 0 2.685,9.122 v 3.014 a 0.727,0.727 0 0 0 0.822,0.822 h 13.972 c 3.014,0 3.836,2.192 3.836,3.014 V 12.137 A 3.746,3.746 0 0 0 17.479,8.3 Z M 5.151,11.315 A 0.875,0.875 0 0 1 4.329,10.493 0.727,0.727 0 0 1 5.151,9.671 0.727,0.727 0 0 1 5.973,10.493 0.875,0.875 0 0 1 5.151,11.315 Z m 3.835,0 A 0.875,0.875 0 0 1 8.164,10.493 0.727,0.727 0 0 1 8.986,9.671 0.727,0.727 0 0 1 9.808,10.493 0.727,0.727 0 0 1 8.986,11.315 Z m 3.836,0 A 0.727,0.727 0 0 1 12,10.493 a 0.727,0.727 0 0 1 0.822,-0.822 0.727,0.727 0 0 1 0.822,0.822 0.875,0.875 0 0 1 -0.822,0.822 z m 3.836,0 a 0.727,0.727 0 0 1 -0.822,-0.822 0.727,0.727 0 0 1 0.822,-0.822 0.726,0.726 0 0 1 0.821,0.822 0.726,0.726 0 0 1 -0.821,0.822 z"/>

</svg>
